!!!COM: Anonymous
!!!OTL: Jamais si bien ne me peut advenir
!!!AGN: Song; Chanson; Rondeau
!!!SCT: Ano3105
!!!SCA: Ano3105
!!!SMS: Dijon Chansonnier
!!!folio: 51v-52r
!!!SMS2: Niv
!!!SMS3: Wolf
!!!SMS4: Lab
!!!voices: 3
**kern	**kern	**kern
*staff3	*staff2	*staff1
*Ivox	*Ivox	*Ivox
*I"Contra	*I"Tenor	*I"Discantus
*I'C	*I'T	*I'D
*clefF4	*clefGv2	*clefG2
*k[b-e-]	*k[b-]	*k[b-]
*M2/1	*M2/1	*M2/1
*met(C|)	*met(C|)	*met(C|)
=1-	=1-	=1-
!!LO:TX:X=-40:Z=8:t=Sig. cong. are editorial
0GG	[0G	[0g
=2	=2	=2
0C	0G]	0g]
=3	=3	=3
1.BB-	[0B-	0d
2C	.	.
=4	=4	=4
1D	0B-]	1f
1E-	.	1g
=5	=5	=5
1D	0F	0a
[1F	.	.
=6	=6	=6
2F]	0A	1r
2G	.	.
1A	.	1f
=7	=7	=7
0G	1B-	1g
.	1G	1b-
=8	=8	=8
0D	0F	1a
.	.	[1dd
=9	=9	=9
1r	1B-	1dd]
1F	1A	1cc
=10	=10	=10
1D	0d	1b-
[1F	.	[1a
=11	=11	=11
1F]	1c	2a]
.	.	2g
1G	1B-	1g
=12	=12	=12
0D	0A	1.f#i
.	.	2e
=13	=13	=13
1r	[0G	0g
1GG	.	.
=14	=14	=14
1.C	0G]	0r
2BB-	.	.
=15	=15	=15
0GG	0r	0b-
=16	=16	=16
1G	0B-	1g
1D	.	1f
=17	=17	=17
2r	1G	1b-
2G	.	.
2A	1F	1a
2F	.	.
=18	=18	=18
1G	1B-	1g
1D	1A	[1f
=19	=19	=19
1BB-	1d	2f]
.	.	2e
1C	[1c	[1e
=20	=20	=20
1D	1c]	1e]
1E-	[1B-	1d
=21	=21	=21
0F	1B-]	0c
.	1A	.
=22	=22	=22
1BB-	[0B-	0B-
[1GG	.	.
=23	=23	=23
1GG]	0B-]	0r
[1G	.	.
=24	=24	=24
2G]	[0B-	0d
2F	.	.
1G	.	.
=25	=25	=25
1D	0B-]	1f
1E-	.	1g
=26	=26	=26
0D	0F	0a
=27	=27	=27
0GG	[0B-	1r
.	.	[1dd
=28	=28	=28
1G	1B-]	1dd]
1A	1A	[1cc
=29	=29	=29
0B-	0d	2cc]
.	.	2b-
.	.	[1b-
=30	=30	=30
0F	0c	1b-]
.	.	1a
=31	=31	=31
1.BB-	[0B-	1b-
.	.	2a
2C	.	2g
=32	=32	=32
1D	0B-]	1f
[1GG	.	[1b-
=33	=33	=33
1GG]	0d	2b-]
.	.	2a
[1G	.	2g
.	.	2f
=34	=34	=34
1G]	1B-	1g
1C	[1c	[1a
=35	=35	=35
0F	1c]	2a]
.	.	2f
.	1A	[1f
=36	=36	=36
0C	0G	1f]
.	.	1e
=37	=37	=37
0DN	[0FN	0fN
=38	=38	=38
1r	0F]	1r
[1D	.	1a
=39	=39	=39
2D]	1r	1b-
2C	.	.
2BB-	1A	1cc
2AA	.	.
=40	=40	=40
1GG	1B-	0dd
[1F	1c	.
=41	=41	=41
1F]	0d	1r
1D	.	[1a
=42	=42	=42
0F	0A	1a]
.	.	1cc
=43	=43	=43
1G	0G	1b-
2F	.	2a
2E-	.	2g
=44	=44	=44
0D	0d	1f
.	.	[1b-
=45	=45	=45
1G	1G	1b-]
1A	1c	[1a
=46	=46	=46
1F	1d	2a]
.	.	2g
1G	1B-	[1g
=47	=47	=47
0D	0A	1g]
.	.	1f#i
=48	=48	=48
0GG	1r	0g
.	1G	.
=49	=49	=49
1r	0B-	1r
1G	.	1d
=50	=50	=50
0C	0c	1e-
.	.	1e-i
=51	=51	=51
0G	0B-	0d
=52	=52	=52
0E-	0B-	1r
.	.	[1g
=53	=53	=53
1r	1e-	1g]
1BB-	[1d	[1f
=54	=54	=54
1D	1d]	1f]
1E-	[1B-	1d
=55	=55	=55
0F	1B-]	0c
.	1A	.
=56	=56	=56
1BB-	0B-	1r
1GG	.	1B-
=57	=57	=57
1.G	1B-	1d
.	1c	1e
2F	.	.
=58	=58	=58
1D	1d	1f
1C	1e-i	1g
=59	=59	=59
1D	1d	1f
1G	1B-	[1b-
=60	=60	=60
0F	0c	1b-]
.	.	1a
=61	=61	=61
1BB-	0B-	1b-
1GG	.	[1dd
=62	=62	=62
1BB-	1G	1dd]
[1FF	1A	[1cc
=63	=63	=63
1FF]	0F	2cc]
.	.	2b-
1F	.	2a
.	.	2g
=64	=64	=64
1D	0B-	1f
[1G	.	[1b-
=65	=65	=65
1G]	0d	1b-]
[1F	.	[1a
=66	=66	=66
1F]	1c	2a]
.	.	2g
1G	1B-	[1g
=67	=67	=67
0D	0A	1g]
.	.	1f#i
=68	=68	=68
0GGl	0Gl	0gl
==	==	==
*-	*-	*-
!!!RDF**kern: l=long note in original notation
!!!RDF**kern: i=editorial accidental
!!!RDF**kern: N=signum congruentiae
!!!ENC: Chris Gage 08-15-2016
!!!END: 2016/08/27
!!!EED: Jesse Rodin
!!!EEV: 2018/11/29
!!!ONB: Translated from MusicXML and edited on 2018/11/29 by Craig Sapp
!!muse2ps: C^@{COM}\n@{SMS}, @{folio}; also @{SMS2}, @{SMS3}, @{SMS4}^v95,95,150Q16c112
